X:1
T:Craigieburn-Wood
M:6/8
L:1/8
K:F
c/2-B/2| A3/2 G/2 F GAc| d3/2 e/2 f c/2- A3/2 A| f3/2 e/2 d cAF| G3 c2 c/2B/2|\
 A3/2 G/2 F GAc| d3/2 e/2 f- c/2 A3/2 F| f3/2- e/2 d c/2- A3/2 F| G3 c2 c|\
 d2 e f3/2 g/2 a| g3/2- f/2 e edc| d3/2 d/2 e f3/2 g/2 a| g3 f2e/2-f/2|\
 g-a/2-g/2f/2-e/2 f3/2- e/2 d| cAc f3/2g/2-a/2-g/2| f3/2 d/2 f c/2- A3/2 F|\
 G3 c2||
